X:1
T:Stella caeli
T:Stella caeli
T:MH394
T:J Michael Haydn
T:BSB Mms 3112 autograph
T:BSB Mms 3112 autograph
T:BSB Mms 3112 autograph
C:J Michael Haydn
Z:BSB Mms 3112 autograph
%%score [ ( 1 2 ) ( 3 4 ) ] 5
L:1/8
Q:1/4=80
M:2/4
K:F
V:1 treble nm="Voice"
V:2 treble 
V:3 bass nm="Voice"
V:4 bass 
V:5 bass nm="Organ"
V:1
"^[] Andte" F3 F | G2 A2 | B3 B | B2 A2 | d3 d | G2 A2 | B3 A | AG z2 | G3 G | A2 A2 | =B3 B | %11
w: ||||||||mor- tis|pe- stem|quam plan-|
 c2 G2 | d3 F | E2 A2 | E2 D3/2 C/ | C2 z2 | z4 | G2 c2 | c2 =B2 | c3 _B | B2 A2 | A3 B | A2 G2 | %23
w: ta- vit|pri- mus|pa- rens|ho- * mi-|num||Ip- sa|ste- la|nunc dig-|ne- tur|si- de-|ra com-|
 G2 F F | E2 z2 | E3 E | F2 F2 | G3 G | A2 A2 | B3 G | G2 F2 | E2 ^c2 | d2 B2 | F2 E3/2 D/ | %34
w: pe- * sce-|re|quo- rum|bel- la|ple- bem|cae- dunt|di- rae|mor- tis|di- rae|mor- tis|ul- * ce-|
 D2 z2 | z4 | A2 A2 | BA A A | A2 A2 | A4 | A2 z A | B2 B G | A2 A2 | G4 | A2 z A | B2 A2 | G4 | %47
w: re||O pi-|i- * ssi- ma|stel- la|ma-|ris a|pe- ste su-|cur- re|no-|bis su-|cur- re|no-|
 F2 z2 | z4 | z4 | B4 | c2 c2 | c3 c | d2 z d | B2 B B | _e2 c2 | A3 A | B2 d2 | G A B2- | B2 A2 | %60
w: bis|||Au-|di nos|Do- mi-|na nam|Fi- li- us|tu- us|ni- hil|ne- gans|Te ho- *|no- *|
 B2 !fermata!z2 |[M:3/4][Q:1/4=66]"^[] Adag:" B2 A2 G2 | G>^F !fermata!F4 | G2 G2 G2 | A4 B2 | %65
w: rat.|Sal- va nos|Je- * su|pro qui- bus|Vir- go|
 c2 B2 z2 | B2 A2 BG | F4{A} G2 | F2 z2 _E2 | D4 =E2 | F4 z2 |] %71
w: Ma- ter|Ma- ter ex- *|o- *|rat ex-|o- *|rat.|
V:2
 C3 C | C2 C2 | G3 G | G2 F2 | F2 G2 | E2 F2 | G3 F | FE x2 | G3 G | G2 F2 | F2 DG | GF GE | F3 D | %13
w: Stel- la|cae- li|ex- stir-|pa- vit|quae la-|cta- vit|Do- mi-|num _|_ _|||||
 C2 DF | C2 =B,3/2 C/ | C2 x2 | x4 | EF GF | D2 D2 | GF EG | G2 F2 | F3 F | E^C DE | E2 D D | %24
w: |||||||||||
 ^C2 x2 | ^C3 C | D2 D2 | E3 E | F2 F2 | ^C3 D | E2 D2 | ^C2 E2 | D2 E2 | D2 ^C3/2 D/ | D2 x2 | %35
w: |||||||||||
 x4 | F2 G2 | F2 F F | E A2 G | G2 F2 | E2 x A | A2 G G | G2 F2 | F2 E2 | F2 x F | G2 F2 | F2 E2 | %47
w: ||||||||||||
 F2 x2 | x4 | x4 | F4 | G2 G2 | F3 F | F2 x F | G2 G G | c2 G2 | F3 F | F2 B2 | G_E DG | F4 | %60
w: |||||||||||||
 F2 x2 |[M:3/4] D2 D2 D=E | D2 D4 | D2 D2 _E2 | F4 F2 | F2 F2 x2 | =E2 F2 D2 | C4 E2 | F2 x2 C2 | %69
w: |||||||||
 B,4 C2 | C4 x2 |] %71
w: ||
V:3
 A,3 A, | B,2 A,2 | C3 C | C2 C2 | B,2 D2 | C2 C2 | C3 D | C2 z2 | C3 C | C2 C2 | D3 D | C2 C2 | %12
 G,3 G, | G,2 F,A, | G,3 F, | E,2 z2 | z4 | C3 A, | G,2 G,2 | G,3 C | C2 C2 | D3 F, | A,2 A,2 | %23
 A,3 =B, | E,2 z2 | A,3 A, | A,2 A,2 | =C3 C | C2 C2 | G,3 B, | A,2 A,2 | B,2 B,2 | A,2 D2 | %33
 A,3 G, | F,2 z2 | z4 | D2 E2 | D2 D D | ^C2 DE | E2 D2 | ^C2 z D | D2 D =C | C2 C2 | C4 | C2 z C | %45
 C3 D | D2 CB, | A,2 z2 | z4 | z4 | B,4 | B,2 B,2 | B,2 A, A, | B, B, F2- | F2 _E E | G2 _E2 | %56
 C3 C | D2 F2 | C2 B,_E | C4 | D2 z2 |[M:3/4] B,2 C2 B,2 | B,>A, A,4 | B,2 B,2 B,2 | C4 D2 | %65
 _E2 D2 z2 | G,2 F,2 G,2 | A,4 B,2 | A,2 z2 A,2 | G,4 A,2 | A,4 z2 |] %71
V:4
 F,3 F, | E,2 F,2 | E,3 E, | F,2 F,2 | B,,3 B,, | C,2 A,2 | E,2 F, =B,, | C,2 x2 | E,3 E, | %9
 F,2 F,E, | D,2 G,F, | E,D, E,C, | =B,,3 B,, | C,2 F,D, | G,,3 G,, | C,2 x2 | x4 | C,D, E,F, | %18
 G,3 F, | E,D, C,E, | F,2 F,2 | D,3 D, | ^C,A,, =B,,C, | D,E,F, ^G,, | A,,2 x2 | A,3 G, | F,2 D,2 | %27
 =C,3 B, | A,2 F,2 | E,3 D, | ^C,2 D,2 | G,3 G, | F,2 G,E, | A,,3 A,, | D,2 x2 | x4 | D2 ^C2 | %37
 D2 F, G, | A,A,, =B,,^C, | D,E,F,G, | A,2 x F, | G,2 G, E, | F,G, A,B, | C3 B, | A,2 x F, | %45
 E,2 F,D, | B,,2 C,2 | F,2 x2 | x4 | x4 | D,4 | _E,2 E,2 | F,3 F, | B,,2 z B,, | _E,2 G, E, | %55
 C,2 _E,2 | F,3 _E, | D,2 B,,2 | _E,F, G,E, | F,_E, F,2 | B,,2 x2 |[M:3/4] G,2 ^F,2 G,^C, | %62
 D,2 D,4 | G,,2 G,2 G,2 | =F,2 _E,2 D,2 | A,,2 B,,2 x2 | C,2 D,2 B,,2 | C,6 | F,2 x2 A,,2 | B,,6 | %70
 F,,4 x2 |] %71
V:5
 F,,F,A,F, | E,C,F,A, | E,G,C,E, | F,F,,A,F, | B,,A,,B,,G,, | C,B,,A,,A, | E,C,F,=B,, | C,CC,D, | %8
 E,D,C,E, | F,F,,F,E, | D,D,G,F, | E,D,E,C, | =B,,G,G,,B,, | C,C,F,D, | G,F,G,G,, | C,CA,E, | %16
 F,D,G,G,, | C,D,E,F, | G,G,,G,F, | E,D,C,E, | F,F,,F,E, | D,F,E,D, | ^C,A,,=B,,C, | D,E,F,^G,, | %24
 A,,A,^C,E, | A,A,,A,G, | F,E,F,D, | =C,G,CB, | A,G,A,F, | E,G,E,D, | ^C,A,,D,F, | G,G,G,,G, | %32
 F,F,G,E, | A,G,A,A,, | D,DB,F, | G,E,A,A,, | D,D^CA, | DD,F,G, | A,A,,=B,,^C, | D,E,F,G, | %40
 A,G,F,D, | G,A,B,=C | F,G,A,B, | CC,CB, | A,A,G,F, | E,C,F,D, | B,,G,,C,C,, | F,,F,D,D | B,G,CC, | %49
 F,,C,F,E, | D,C,B,,D, | _E,D,C,E, | F,_E,F,F,, | B,,C,D,B,, | _E,F,G,E, | C,D,_E,C, | F,F,,F,_E, | %57
 D,C,B,,D, | _E,F,G,E, | F,_E,F,F,, | B,,2 !fermata!z2 |[M:3/4] G,2 ^F,2 G,^C, | %62
 D,2 !fermata!D,,4 | G,,G,,G,G,G,G, | =F,F,_E,E,D,D, | A,,2 B,,2 z2 | C,C,D,D,B,,B,, | %67
 C,C,C,C,C,C, | F,,F,,F,,F,,F,,F,, | F,,F,,F,,F,,F,,F,, | F,,4 z2 |] %71

